X:1
T:Smith's a Gallant Fireman, The
T:Carrick's Rant
R:Strathspey
M: 4/4
L: 1/8
%%printtempo 0
G:140
K:D
"D"D2 D>F {/F}A2 A>B| A>Bd>A F2D2| "Em"E>EE>G {/G}B2 B>f| "Em"g>fe>d "A"B>A (B/c/d)|
"D"D>CD>F {/F}A2 A>F| "D"A>Bd>A "Bm"F2D>F| "G"G<BG<B "D"F<AF<A| "Em"E>FG>A "A"{/c}B>AB>c||
"D"d2 f>e e>dd>B| A>Bd>A F2D2| "Em"e2 g>f e<ee>f| "G"g>fe>d "A"B>AB>c|
"D"d2 f>e e<dd>B| A>Bd>A F2D2| "G"G<BG<B "D"F<AF<A| "Em"E>FG>A "G"B2 {/c}d2|]
